svg/cloud-build.svg

<?xml version="1.0" encoding="UTF-8"?>
<svg xmlns="http://www.w3.org/2000/svg" xmlns:xlink="http://www.w3.org/1999/xlink" width="32" height="32" viewBox="0 0 32 32">
<path fill-rule="nonzero" fill="rgb(25.882353%, 52.156863%, 95.686275%)" fill-opacity="1" d="M 16.199219 21.652344 L 20.894531 18.945312 L 20.894531 13.535156 L 19.320312 12.613281 L 14.625 20.746094 Z M 16.199219 21.652344 "/>
<path fill-rule="nonzero" fill="rgb(40%, 61.568627%, 96.470588%)" fill-opacity="1" d="M 11.507812 13.535156 L 11.507812 18.945312 L 13.078125 19.851562 L 17.785156 11.734375 L 16.199219 10.8125 Z M 11.507812 13.535156 "/>
<path fill-rule="nonzero" fill="rgb(68.235294%, 79.607843%, 98.039216%)" fill-opacity="1" d="M 15.28125 23.265625 L 9.652344 20.011719 L 9.652344 13.535156 L 4.652344 10.640625 L 4.652344 22.90625 L 15.28125 29.039062 Z M 10.574219 11.933594 L 16.199219 8.679688 L 21.832031 11.933594 L 26.839844 9.039062 L 16.199219 2.894531 L 5.558594 9.039062 Z M 22.746094 20.011719 L 17.121094 23.265625 L 17.121094 29.039062 L 27.761719 22.90625 L 27.761719 10.640625 L 22.746094 13.535156 Z M 22.746094 20.011719 "/>
</svg>

<svg role="img" viewBox="0 0 32 32" height="32" width="32" xmlns="http://www.w3.org/2000/svg"><path d="m16.2 21.652 4.695-2.707v-5.41l-1.575-.922-4.695 8.133Zm0 0" fill="rgb(25.882353%, 52.156863%, 95.686275%)"/><path d="M11.508 13.535v5.41l1.57.907 4.707-8.118-1.586-.921Zm0 0" fill="rgb(40%, 61.568627%, 96.470588%)"/><path d="m15.281 23.266-5.629-3.254v-6.477l-5-2.894v12.265l10.63 6.133Zm-4.707-11.332L16.2 8.68l5.633 3.254 5.008-2.895L16.2 2.895 5.558 9.039Zm12.172 8.078-5.625 3.254v5.773l10.64-6.133V10.641l-5.015 2.894Zm0 0" fill="rgb(68.235294%, 79.607843%, 98.039216%)"/></svg>
